!!!OTL: DIE FASTNACHT BRINGT UNS FREUDEN
!!!ARE: Europa, Mitteleuropa, Deutschland
!!!SCT: Z0297
!!!YEM: Copyright 1995, estate of Helmut Schaffrath.
**kern
*ICvox
*Ivox
*M3/4
*k[]
*C:
{4G
=1
2c
4d
=2
2e
4f
=3
4.g
8f
8e
8d
=4
2e}
{4G
=5
2c
4d
=6
2e
4f
=7
4.g
8f
8e
8d
=8
2e}
{4e
=9
2d
4c
=10
4.d
8c
8B
8A
=11
2B
4A
=12
2B}
{4g
=13
2f
4e
=14
2f
4f
=15
2e
4d
=16
2e}
{4e
=17
2d
4c
=18
2d
8B
8c
=19
2A
4f
=20
2e
4d
=21
2c}
==
!!!AGN: Lyrisches Lied, Romanze
!!!ONB: ESAC (Essen Associative Code) Database: ZUCCAL
!!!AMT: simple triple
!!!AIN: vox
!!!EED: Helmut Schaffrath
!!!EEV: 1.0
*-
